X:494
T:Reel 494
M:4/4
K:Gmaj
L:1/8
BdGA BdGA|BdAc Bdgd|BAGd Bdgd|egdB AGEG|Bded Bddd|Bdcd BdAd|BdAf GAge|dBAc BGG2|f2ag efge|dBgd BGA2|d2gd edad|gedc BGG2|d2gd e2ge|dBgB BAA2|b2af gfed|egdB BGG2|
